X:22
T:Purcell's Reel
M:2/4
L:1/16
Z:jason
B: Bob Walters, 1950
K:A
EE | AECA, DCB,A, | CEA2 A2cA | BEcE dEcE | BAGF E2FG |
AECA, DCB,A, | CEA2 A2cB | Aceg aecA | EA2A/A/ A2 :|
|:cd | ea2g abae | gb2b/b/ b2b2- | bege begf | egab a2eg |
agbg agfe | feaf edcB | Aceg aecA | [AE]A2A/A/ A2 :|

